public/img/Bubble.svg

<svg fill="none" height="359" viewBox="0 0 785 359" width="785" xmlns="http://www.w3.org/2000/svg"><path d="m704.43 36.3391c-101.863-21.2876-204.541-29.0563-309.484-29.99655-94.009-.84229-222.393-16.52025-306.7967 28.14495-42.5265 22.5043-77.6366 79.8535-65.8381 121.8375 8.0082 28.497 28.6672 52.426 59.7917 66.659 75.4601 34.509 175.1941 40.927 259.3211 46.662 93.176 6.351 196.201 8.905 286.194-14.999 37.595-9.986 73.251-25.269 105.924-43.513 14.809-8.269 37.926-20.409 44.787-35.366 13.22-28.819-25.737-69.484-49.042-87.2127-33.732-25.6601-73.15-38.1365-117.568-42.2173" stroke="#30e1b9" stroke-linecap="round" stroke-linejoin="round" stroke-width="6"/><path d="m34.3532 358.706c1.6454.194 3.1369-.982 3.3312-2.627l3.1678-26.814c.1944-1.645-.9819-3.137-2.6273-3.331-1.6455-.195-3.1369.982-3.3313 2.627l-2.8158 23.834-23.8342-2.815c-1.64542-.195-3.13687.982-3.33125 2.627-.19439 1.645.98189 3.137 2.62731 3.331zm17.3562-158.646c-39.4461 40.522-44.49663 79.895-39.4432 109.241 2.5139 14.598 7.5097 26.629 11.8736 35.01 2.1837 4.194 4.215 7.485 5.7095 9.739.7475 1.128 1.3614 1.997 1.7939 2.592.2162.297.3872.525.5069.683.0599.079.1069.14.1404.184.0168.021.0301.038.04.051.0049.006.009.012.0122.016.0016.002.0033.004.0041.005.0015.002.0028.003 2.3584-1.854 2.3555-1.858 2.3564-1.857 2.357-1.856-.0001 0 .0003 0 .0001 0-.0003-.001-.0016-.002-.0037-.005-.0041-.005-.0118-.015-.0228-.029-.022-.029-.0574-.075-.1056-.138-.0963-.127-.2434-.324-.4355-.588-.3843-.528-.9481-1.325-1.6444-2.376-1.3932-2.101-3.3141-5.211-5.3887-9.195-4.1529-7.976-8.8983-19.413-11.2824-33.257-4.7426-27.541-.2161-64.954 37.8295-104.038z" fill="#30e1b9"/></svg>

<svg width="785" height="359" viewBox="0 0 785 359" fill="none" xmlns="http://www.w3.org/2000/svg">
<path d="M704.43 36.3391C602.567 15.0515 499.889 7.2828 394.946 6.34255C300.937 5.50026 172.553 -10.1777 88.1493 34.4875C45.6228 56.9918 10.5127 114.341 22.3112 156.325C30.3194 184.822 50.9784 208.751 82.1029 222.984C157.563 257.493 257.297 263.911 341.424 269.646C434.6 275.997 537.625 278.551 627.618 254.647C665.213 244.661 700.869 229.378 733.542 211.134C748.351 202.865 771.468 190.725 778.329 175.768C791.549 146.949 752.592 106.284 729.287 88.5553C695.555 62.8952 656.137 50.4188 611.719 46.338" stroke="#30E1B9" stroke-width="6" stroke-linecap="round" stroke-linejoin="round"/>
<path d="M34.3532 358.706C35.9986 358.9 37.4901 357.724 37.6844 356.079L40.8522 329.265C41.0466 327.62 39.8703 326.128 38.2249 325.934C36.5794 325.739 35.088 326.916 34.8936 328.561L32.0778 352.395L8.2436 349.58C6.59818 349.385 5.10673 350.562 4.91235 352.207C4.71796 353.852 5.89424 355.344 7.53966 355.538L34.3532 358.706ZM51.7094 200.06C12.2633 240.582 7.21277 279.955 12.2662 309.301C14.7801 323.899 19.7759 335.93 24.1398 344.311C26.3235 348.505 28.3548 351.796 29.8493 354.05C30.5968 355.178 31.2107 356.047 31.6432 356.642C31.8594 356.939 32.0304 357.167 32.1501 357.325C32.21 357.404 32.257 357.465 32.2905 357.509C32.3073 357.53 32.3206 357.547 32.3305 357.56C32.3354 357.566 32.3395 357.572 32.3427 357.576C32.3443 357.578 32.346 357.58 32.3468 357.581C32.3483 357.583 32.3496 357.584 34.7052 355.727C37.0607 353.869 37.0616 353.87 37.0622 353.871C37.0621 353.871 37.0625 353.871 37.0623 353.871C37.062 353.87 37.0607 353.869 37.0586 353.866C37.0545 353.861 37.0468 353.851 37.0358 353.837C37.0138 353.808 36.9784 353.762 36.9302 353.699C36.8339 353.572 36.6868 353.375 36.4947 353.111C36.1104 352.583 35.5466 351.786 34.8503 350.735C33.4571 348.634 31.5362 345.524 29.4616 341.54C25.3087 333.564 20.5633 322.127 18.1792 308.283C13.4366 280.742 17.9631 243.329 56.0087 204.245L51.7094 200.06Z" fill="#30E1B9"/>
</svg>
